configs/network-icons/immutable-short.svg

<svg width="30" height="30" viewBox="0 0 30 30" fill="none" xmlns="http://www.w3.org/2000/svg">
<path d="M15 2C7.82029 2 2 7.82029 2 15C2 22.1797 7.82029 28 15 28C22.1797 28 28 22.1797 28 15C28 7.82029 22.1797 2 15 2ZM14.4373 7.25293C14.7985 7.0765 15.1792 7.08764 15.5284 7.28729C16.742 7.97907 17.9519 8.67643 19.1572 9.38307C19.5454 9.61057 19.7431 9.97643 19.745 10.424C19.7524 11.9951 19.7496 13.5654 19.745 15.1365C19.745 15.195 19.7069 15.2795 19.6605 15.3074C19.1934 15.585 18.7208 15.8543 18.2091 16.1486C18.2091 16.0456 18.2091 15.9731 18.2091 15.9016C18.2091 14.2859 18.2045 12.6702 18.2129 11.0545C18.2147 10.7444 18.107 10.5447 17.8321 10.3878C16.4226 9.58736 15.0214 8.77114 13.6174 7.9605C13.557 7.92521 13.4976 7.88807 13.4056 7.83236C13.7678 7.62714 14.0937 7.421 14.4373 7.25293ZM14.1791 23.3293C14.1011 23.2884 14.0417 23.2606 13.9851 23.2281C12.1251 22.1556 10.268 21.0766 8.4025 20.0124C7.87972 19.7134 7.64107 19.2891 7.64571 18.692C7.65593 17.4217 7.65314 16.1524 7.64664 14.8821C7.64386 14.3082 7.87693 13.8931 8.38022 13.6071C9.6895 12.8624 10.9923 12.1056 12.2951 11.3489C12.4074 11.2839 12.4901 11.2727 12.6071 11.3433C13.0574 11.6135 13.5143 11.8716 13.9925 12.1474C13.9015 12.2013 13.8319 12.244 13.7622 12.2839C12.3526 13.0983 10.944 13.9145 9.53071 14.7233C9.29857 14.8561 9.19178 15.0279 9.19364 15.2962C9.20107 16.2972 9.202 17.2973 9.19364 18.2983C9.19085 18.575 9.30043 18.7496 9.53907 18.8861C11.0304 19.7385 12.5161 20.6021 14.0064 21.4564C14.1327 21.5288 14.1866 21.604 14.1829 21.7554C14.1717 22.2679 14.1791 22.7805 14.1791 23.3293ZM14.1791 20.4628C14.0501 20.3894 13.9563 20.3365 13.8634 20.2826C12.6814 19.6001 11.5002 18.9158 10.3154 18.2389C10.1872 18.1655 10.1399 18.0875 10.1417 17.9389C10.1501 17.1691 10.1473 16.4003 10.1436 15.6305C10.1436 15.5265 10.1594 15.4541 10.2624 15.3974C10.6989 15.1541 11.1297 14.8997 11.5624 14.6509C11.594 14.6332 11.6274 14.6193 11.685 14.5914C11.685 14.896 11.685 15.1755 11.685 15.455C11.685 15.923 11.6924 16.391 11.6822 16.859C11.6766 17.1255 11.7788 17.3056 12.0119 17.4375C12.6814 17.8154 13.3425 18.2082 14.0129 18.5843C14.1448 18.6586 14.1847 18.7403 14.1819 18.8861C14.1736 19.3977 14.1791 19.9103 14.1791 20.4628ZM12.8132 10.3646C12.5625 10.2169 12.348 10.2188 12.0973 10.3655C10.6914 11.1864 9.28 11.997 7.87043 12.8114C7.811 12.8457 7.74879 12.8773 7.64386 12.9349C7.681 12.3991 7.56678 11.8939 7.74878 11.4046C7.84814 11.1371 8.03479 10.9356 8.28179 10.7926C9.45829 10.1129 10.6339 9.43136 11.8122 8.75629C12.2421 8.50929 12.6814 8.51578 13.1113 8.76278C14.4494 9.5335 15.7874 10.3061 17.1227 11.0814C17.1794 11.1149 17.2509 11.1882 17.2518 11.243C17.2611 11.7936 17.2574 12.3434 17.2574 12.9349C16.7717 12.6544 16.3232 12.3954 15.8747 12.1372C14.8533 11.5476 13.83 10.9626 12.8132 10.3646ZM22.2215 19.0142C22.1871 19.4469 21.9327 19.7543 21.5585 19.9688C20.1248 20.7934 18.6939 21.6207 17.2611 22.4481C16.8116 22.7071 16.3622 22.9671 15.9119 23.2262C15.858 23.2578 15.8014 23.2847 15.728 23.3237C15.7234 23.2494 15.7169 23.1946 15.7169 23.1399C15.7159 22.6654 15.7196 22.1909 15.7141 21.7164C15.7131 21.6096 15.7401 21.5427 15.8385 21.4861C17.9278 20.2845 20.0143 19.0783 22.1017 17.8739C22.1333 17.8554 22.1676 17.8414 22.2271 17.8126C22.228 18.2333 22.2521 18.6261 22.2215 19.0142ZM22.2317 16.0233C22.228 16.5154 21.9634 16.8609 21.5418 17.1023C19.9084 18.0411 18.2769 18.9854 16.6454 19.927C16.3474 20.0988 16.0484 20.2706 15.728 20.4544C15.7234 20.3736 15.7169 20.3198 15.7169 20.265C15.7159 19.797 15.7215 19.329 15.7131 18.8601C15.7113 18.7273 15.7549 18.6558 15.8701 18.5899C17.3549 17.7384 18.8331 16.8766 20.3198 16.0298C20.5844 15.8794 20.7005 15.6946 20.6986 15.3844C20.6875 13.7687 20.6931 12.1521 20.6931 10.5364C20.6931 10.4593 20.6931 10.3831 20.6931 10.2541C21.0812 10.4881 21.4434 10.6803 21.7758 10.9152C22.0785 11.1297 22.2308 11.4547 22.2326 11.8289C22.2382 13.2274 22.2419 14.6249 22.2317 16.0233Z" fill="black"/>
</svg>

<svg xmlns="http://www.w3.org/2000/svg" fill="none" viewBox="0 0 30 30">
  <path fill="#000" d="M15 2C7.82 2 2 7.82 2 15s5.82 13 13 13 13-5.82 13-13S22.18 2 15 2Zm-.563 5.253a1.126 1.126 0 0 1 1.091.034 343.94 343.94 0 0 1 3.63 2.096c.387.228.585.593.587 1.041.007 1.571.005 3.141 0 4.713 0 .058-.038.143-.085.17-.467.278-.94.547-1.45.842v-.247c0-1.616-.006-3.232.003-4.847.002-.31-.106-.51-.38-.667-1.41-.8-2.812-1.617-4.216-2.428-.06-.035-.12-.072-.211-.128.362-.205.688-.411 1.031-.58Zm-.258 16.076c-.078-.04-.137-.068-.194-.1-1.86-1.073-3.717-2.152-5.582-3.217-.523-.299-.762-.723-.757-1.32.01-1.27.007-2.54 0-3.81-.002-.574.23-.989.734-1.275 1.31-.745 2.612-1.501 3.915-2.258.112-.065.195-.076.312-.006.45.27.907.529 1.386.804l-.23.137c-1.41.814-2.819 1.63-4.232 2.44-.232.132-.34.304-.337.572a200.27 200.27 0 0 1 0 3.002c-.003.277.106.452.345.588 1.491.852 2.977 1.716 4.467 2.57.127.073.18.148.177.3-.011.512-.004 1.024-.004 1.573Zm0-2.866-.316-.18c-1.182-.683-2.363-1.367-3.548-2.044-.128-.073-.175-.152-.173-.3.008-.77.005-1.539.002-2.309 0-.104.015-.176.118-.233.437-.243.868-.497 1.3-.746.032-.018.065-.032.123-.06v.864c0 .468.007.936-.003 1.404a.59.59 0 0 0 .33.578c.67.378 1.33.771 2 1.147.133.075.173.156.17.302-.008.512-.003 1.024-.003 1.577Zm-1.366-10.098c-.25-.148-.465-.146-.716 0-1.406.821-2.817 1.632-4.227 2.446-.059.035-.121.066-.226.124.037-.536-.077-1.041.105-1.53.1-.268.286-.47.533-.612 1.176-.68 2.352-1.362 3.53-2.037.43-.247.87-.24 1.3.007 1.337.77 2.675 1.543 4.01 2.318.057.034.129.107.13.162.01.55.005 1.1.005 1.692l-1.382-.798c-1.022-.59-2.045-1.174-3.062-1.772Zm9.408 8.65c-.034.432-.288.74-.663.954-1.433.824-2.864 1.652-4.297 2.48l-1.35.777c-.053.032-.11.059-.183.098-.005-.075-.011-.13-.011-.184-.001-.475.003-.95-.003-1.424 0-.106.026-.173.124-.23 2.09-1.201 4.176-2.408 6.264-3.612.031-.019.066-.033.125-.061.001.42.025.813-.006 1.201Zm.01-2.992c-.003.492-.268.838-.69 1.08-1.633.938-3.264 1.882-4.896 2.824l-.917.527c-.005-.08-.011-.134-.011-.189-.001-.468.005-.936-.004-1.405-.002-.133.042-.204.157-.27 1.485-.852 2.963-1.713 4.45-2.56.264-.15.38-.335.379-.646-.012-1.615-.006-3.232-.006-4.848v-.282c.388.234.75.426 1.083.661.302.215.455.54.457.914.005 1.398.009 2.796-.001 4.194Z"/>
</svg>
